src/22/actions/office-chart-area-focus-peak-node.svg

<svg xmlns="http://www.w3.org/2000/svg" viewBox="0 0 22 22">
  <defs id="defs3051">
    <style type="text/css" id="current-color-scheme">
      .ColorScheme-Text {
        color:#5d656b;
      }
      </style>
  </defs>
 <path 
     style="fill:currentColor;fill-opacity:1;stroke:none" 
     d="M 4 3 L 4 15 L 4 16 L 4 17 L 3 17 L 3 18 L 4 18 L 4 19 L 5 19 L 5 18 L 19 18 L 19 17 L 5 17 L 5 16 L 5.0078125 16 L 6 16 L 8 16 L 8 15.992188 L 8.0078125 16 L 10.007812 14 L 11.599609 14 L 13.599609 16 L 17.099609 16 L 19 16 L 19 15 L 17.099609 15 L 14.013672 15 L 12.013672 13 L 12 13 L 11.007812 13 L 10.599609 13 L 9.59375 13 L 7.59375 15 L 6 15 L 5.0078125 15 L 5 15 L 5 11 L 10 11 L 10 10.992188 L 10.007812 11 L 11.003906 10.003906 L 11 10 L 10.296875 9.296875 L 9.59375 10 L 5 10 L 5 3 L 4 3 z M 11 10 L 13 10 L 13 9 L 12 9 L 12 8 L 11 8 L 11 10 z M 11 4 L 11 6 L 12 6 L 12 5 L 13 5 L 13 4 L 11 4 z M 15 4 L 15 5 L 16 5 L 16 6 L 17 6 L 17 4 L 15 4 z M 14 5.59375 L 13.292969 6.3007812 L 12.296875 7.296875 L 13.003906 8.0039062 L 14 7.0078125 L 14.996094 8.0039062 L 15.703125 7.296875 L 14 5.59375 z M 16 8 L 16 9 L 15 9 L 15 10 L 17 10 L 17 8 L 16 8 z M 19 8 L 18 9 L 19 9 L 19 8 z "
     class="ColorScheme-Text"
     />
 <path 
     style="fill:currentColor;fill-opacity:0.5;stroke:none" 
     d="M 14 7 L 12.003906 9 L 13 9 L 13 10 L 11.005859 10 L 10.007812 11 L 5 11 L 5 15 L 7.5996094 15 L 9.5996094 13 L 12.007812 13 L 14 14.992188 L 19 15 L 19 9 L 17 9 L 17 10 L 15 10 L 15 9 L 16 9 L 14 7 z M 10 14 L 8 16 L 5 16 L 5 17 L 19 17 L 19 16 L 13.599609 16 L 11.599609 14 L 10 14 z "
     class="ColorScheme-Text"
     />
</svg>

<svg xmlns="http://www.w3.org/2000/svg" viewBox="0 0 22 22"><defs id="defs3051"><style type="text/css" id="current-color-scheme">.ColorScheme-Text{color:#5d656b}</style></defs><path d="M4 3v14H3v1h1v1h1v-1h14v-1H5v-1h3v-.008l.008.008 2-2H11.6l2 2H19v-1h-4.986l-2-2h-2.42l-2 2H5v-4h5v-.008l.008.008.996-.996L11 10l-.703-.703-.703.703H5V3H4zm7 7h2V9h-1V8h-1v2zm0-6v2h1V5h1V4h-2zm4 0v1h1v1h1V4h-2zm-1 1.594l-.707.707-.996.996.707.707.996-.996.996.996.707-.707L14 5.594zM16 8v1h-1v1h2V8h-1zm3 0l-1 1h1V8z" class="ColorScheme-Text" fill="currentColor"/><path d="M14 7l-1.996 2H13v1h-1.994l-.998 1H5v4h2.6l2-2h2.408L14 14.992 19 15V9h-2v1h-2V9h1l-2-2zm-4 7l-2 2H5v1h14v-1h-5.4l-2-2H10z" class="ColorScheme-Text" fill="currentColor" fill-opacity=".5"/></svg>
